X: 1
T: Bade palarie noua
O: Romania
R:
Z: 2014 John Chambers <jc:trillian.mit.edu>
S: handwritten copy from Yaron Shragai
Q: "Moderato"
M: 3/4
L: 1/8
K: D
"B"|:\
"G"G<A B2 B2 | B<B B2 (AG) | "D"F<G A2 A2 | "B7"A<A ~A2 (GF) |
"Em"E<F G4 | ~G(G/F/) GA B2 | "A7"~A>G FD EC | "D"D4 z2 :|
"A"|:\
"D"A,<G (FE) (ED) | D<F A2 A2 | "A7"~A>G FD EC | "D"D4 z2 :|
